X: 36271
T: Seamus Begley's
R: jig
M: 6/8
K: Dmajor
|:FAA BAF|ABA D2 E|F2 d BAF|E3 EDE|
FAA BAF|ABA D2 E|F2 A B2 c|1 d3 d2 A:|2 d3 dcB||
|:Add fed|e2 d B2 F|Add fed|e3 edB|
Add fed|e2 d B2 b|a2 f efe|1 d3 dFG:|2 d3 d2 E||

